X:1
T:Volkslied
T:Steigermarsch
T:Der Text &quot;Wache auff, der Steyer kömmt&quot; erschien um 1700 im erzgebirgischen &quot;Bergliederbüchlein&quot; in Freiberg/Sachsen 
Z:Der Text "Wache auff, der Steyer kömmt" erschien um 1700 im erzgebirgischen "Bergliederbüchlein" in Freiberg/Sachsen
Z:
L:1/8
M:4/4
K:F
V:1 treble nm="Piano"
V:1
"F" F4"C" E2 G2 |"F" F4 z4 |"F" A4"C7" G2 B2 |"F" A4 z2 FG |"F" A2 A2 A2 GA |"C" B2 GG G2 GA | %6
w: 1.~Glück auf, Glück|auf!|Der Stei- ger|kommt. Und er|hat sein hel- les _|Licht bei der Nacht, und er|
w: 2.~Schon an- ge-|zündt,|es gibt ein'|Schein, und da-|mit so fah- ren _|wir bei der Nacht, und da-|
w: 3.~Ins Berg- werk|ein,|wo Berg- leut|sein. Wir _|haun das Sil- ber _|fein bei der Nacht, wir _|
w: 4.~Aus Fel- sen-|stein|haun wir das|Gold. Dem _|schwarz- braun Mäg- de- *|lein bei der Nacht, dem _|
"C7" B2 d2 d2 cB |"F" c2 AA A2 G2 |"Dm" F4"C/E" G4 |"F" A2 d2 c2"Bb" B2 |"F" A4"C7" G4 | %11
w: hat sein hel- les _|Licht bei der Nacht wohl|an- ge-|zündt,~ _ _ wohl|an- ge-|
w: mit so fah- ren _|wir bei der Nacht ins|Berg- werk|ein,~ _ _ ins|Berg- werk|
w: haun das Sil- ber _|fein bei der Nacht aus|Fel- sen-|stein,~ _ _ aus|Fel- sen-|
w: schwarz- braun Mäg- de- *|lein bei der Nacht, dem|sein wir|hold,~ _ _ dem|sein wir|
"F" F4 z4 |] %12
w: zündt.|
w: ein.|
w: stein.|
w: hold.|

